X:1
T:A Sailor's Life
M:6/4
L:1/4
K:G
 C D C D2- D/2D/2| E/2D/2 C D A,3| D D C D3| G/2G/2 AG/2-F/2 E3| D/2D/2 F G A3|\
G/2-F/2 D D| G3|A/2-G/2 F D C- A, G,| A, D3/2 D/2 D3|
